X:464
T:Popular German Air,A. RH.464
R:march
S:Rev.R.Harrison’s MS,c1815,Cumbria
O:England
A:Temple Sowerby,Cumbria
Z:vmp.Simon Wilson. Review PJH, 2008.
M:C
L:1/4
Q:2/4=80
K:D
a/g/|ffee|defd|efgf|(e/d/c/B/)A(a/g/)|\
ffga|bagf|eeaa|d3:|!
|:f|gfgf|(e/d/c/B/)Af|gfgf|e2za/g/|\
ffga|bagf|eeaa|d2zA|!
d2A2|F2A2|dAdB|dfaf|\
(e/g/)e/d/ (c/B/)B/c/|(d/e/).f/.g/ (a/f/).e/.d/|\
(e/g/).e/.d/ (c/A/).B/.c/|dfd2|]

